; generated by PrusaSlicer 2.3.1+arm64 on 2021-05-22 at 15:06:53 UTC


;
;

;
;
; 

; external perimeters extrusion width = 0.45mm
; perimeters extrusion width = 0.45mm
; infill extrusion width = 0.45mm
; solid infill extrusion width = 0.45mm
; top infill extrusion width = 0.40mm
; first layer extrusion width = 0.42mm

M73 P0 R83
M201 X1250 Y1250 Z400 E5000 ; sets maximum accelerations, mm/sec^2
M203 X180 Y180 Z12 E80 ; sets maximum feedrates, mm/sec
M204 P1250 R1250 T1250 ; sets acceleration (P, T) and retract acceleration (R), mm/sec^2
M205 X8.00 Y8.00 Z2.00 E10.00 ; sets the jerk limits, mm/sec
M205 S0 T0 ; sets the minimum extruding and travel feed rate, mm/sec
M107
;TYPE:Custom
G90 ; use absolute coordinates
M83 ; extruder relative mode
M104 S170 ; set extruder temp for bed leveling
M140 S60 ; set bed temp
M109 R170 ; wait for bed leveling temp
M190 S60 ; wait for bed temp
G28 ; home all without mesh bed level
G29 ; mesh bed leveling 
M104 S215 ; set extruder temp
G92 E0.0
G1 Y-2.0 X179 F2400
G1 Z3 F720
M109 S215 ; wait for extruder temp

; intro line
G1 X170 F1000
G1 Z0.2 F720
G1 X110.0 E8.0 F900
G1 X40.0 E10.0 F700
G92 E0.0

M221 S95 ; set flow
G21 ; set units to millimeters
G90 ; use absolute coordinates
M83 ; use relative distances for extrusion
M900 K0.2 ; Filament gcode LA 1.5
; ; Filament gcode LA 1.0
;LAYER_CHANGE
;Z:0.2
;HEIGHT:0.2
;BEFORE_LAYER_CHANGE
G92 E0.0
;0.2


M73 P0 R82
G1 E-3.20000 F4200.000
G1 Z0.200 F9000.000
;AFTER_LAYER_CHANGE
;0.2
G1 Z0.400
G1 X73.326 Y62.331
G1 Z0.200
G1 E3.20000 F2400.000
M204 S800
;TYPE:Skirt
;WIDTH:0.42
G1 F1200.000
G1 X73.812 Y61.960 E0.01917
G1 X74.373 Y61.726 E0.01906
G1 X74.975 Y61.642 E0.01906
G1 X105.004 Y61.642 E0.94153
G1 X105.618 Y61.724 E0.01941
G1 X106.189 Y61.961 E0.01941
G1 X106.680 Y62.338 E0.01941
G1 X107.058 Y62.829 E0.01941
G1 X122.101 Y88.888 E0.94344
G1 X122.310 Y89.439 E0.01846
G1 X122.377 Y90.024 E0.01846
G1 X122.298 Y90.607 E0.01846
G1 X122.080 Y91.150 E0.01835
G1 X107.045 Y117.192 E0.94284
G1 X106.657 Y117.685 E0.01965
G1 X106.158 Y118.057 E0.01953
G1 X105.597 Y118.282 E0.01894
G1 X105.000 Y118.358 E0.01888
G1 X74.977 Y118.358 E0.94135
G1 X74.397 Y118.280 E0.01835
G1 X73.850 Y118.061 E0.01846
G1 X73.344 Y117.686 E0.01977
G1 X72.954 Y117.191 E0.01977
G1 X57.913 Y91.139 E0.94320
G1 X57.696 Y90.583 E0.01870
G1 X57.623 Y89.995 E0.01858
G1 X57.699 Y89.404 E0.01870
G1 X57.920 Y88.850 E0.01870
G1 X72.953 Y62.811 E0.94272
G1 X73.289 Y62.379 E0.01718
M204 S1250
; printing object hexagon-bowl-120mmxx60mmx25mm.stl id:0 copy 0
G1 E-2.24000 F4200.000
;WIPE_START
G1 F7200.000
G1 X73.812 Y61.960 E-0.37115
G1 X74.373 Y61.726 E-0.33681
G1 X74.738 Y61.675 E-0.20404
;WIPE_END
G1 E-0.04800 F4200.000
G1 Z0.400 F9000.000
G1 X75.454 Y64.806
G1 Z0.200
G1 E3.20000 F2400.000
M204 S800
;TYPE:Perimeter
G1 F1200.000
G1 X104.546 Y64.806 E0.91213
G1 X119.091 Y90.000 E0.91213
G1 X104.546 Y115.194 E0.91213
G1 X75.454 Y115.194 E0.91213
G1 X60.909 Y90.000 E0.91213
G1 X75.424 Y64.858 E0.91025
M204 S1250
G1 X75.237 Y64.429 F9000.000
M204 S800
;TYPE:External perimeter
G1 F1200.000
G1 X104.763 Y64.429 E0.92578
G1 X119.527 Y90.000 E0.92578
G1 X104.763 Y115.571 E0.92578
G1 X75.237 Y115.571 E0.92578
G1 X60.473 Y90.000 E0.92578
G1 X75.207 Y64.481 E0.92390
M204 S1250
G1 X75.583 Y64.629 F9000.000
G1 E-2.24000 F4200.000
;WIPE_START
G1 F7200.000
G1 X76.852 Y64.478 E-0.91200
;WIPE_END
G1 E-0.04800 F4200.000
G1 Z0.400 F9000.000
G1 X105.536 Y66.748
G1 Z0.200
G1 E3.20000 F2400.000
M204 S800
;TYPE:Solid infill
;WIDTH:0.421227
G1 F1200.000
G1 X103.877 Y65.089 E0.07380
G1 X103.342 Y65.089 E0.01683
G1 X105.803 Y67.550 E0.10949
G1 X106.534 Y68.816 E0.04598
G1 X102.807 Y65.089 E0.16580
G1 X102.272 Y65.089 E0.01683
G1 X107.265 Y70.082 E0.22211
G1 X107.996 Y71.348 E0.04598
G1 X101.737 Y65.089 E0.27842
G1 X101.202 Y65.089 E0.01683
G1 X108.727 Y72.614 E0.33473
G1 X109.457 Y73.879 E0.04598
G1 X100.667 Y65.089 E0.39105
G1 X100.132 Y65.089 E0.01683
G1 X110.188 Y75.145 E0.44736
G1 X110.919 Y76.411 E0.04598
G1 X99.597 Y65.089 E0.50367
G1 X99.062 Y65.089 E0.01683
G1 X111.650 Y77.677 E0.55998
M73 P1 R82
G1 X112.381 Y78.943 E0.04598
G1 X98.527 Y65.089 E0.61630
G1 X97.992 Y65.089 E0.01683
G1 X113.112 Y80.209 E0.67261
G1 X113.842 Y81.474 E0.04598
G1 X97.457 Y65.089 E0.72892
G1 X96.922 Y65.089 E0.01683
G1 X114.573 Y82.740 E0.78523
G1 X115.304 Y84.006 E0.04598
G1 X96.387 Y65.089 E0.84154
G1 X95.852 Y65.089 E0.01683
G1 X116.035 Y85.272 E0.89786
G1 X116.766 Y86.538 E0.04598
G1 X95.317 Y65.089 E0.95417
G1 X94.782 Y65.089 E0.01683
G1 X117.497 Y87.804 E1.01048
G1 X118.227 Y89.070 E0.04598
G1 X94.247 Y65.089 E1.06679
G1 X93.712 Y65.089 E0.01683
G1 X118.713 Y90.090 E1.11218
G1 X118.517 Y90.429 E0.01232
G1 X93.177 Y65.089 E1.12727
G1 X92.642 Y65.089 E0.01683
G1 X118.321 Y90.768 E1.14236
G1 X118.125 Y91.107 E0.01232
G1 X92.107 Y65.089 E1.15745
G1 X91.572 Y65.089 E0.01683
G1 X117.929 Y91.447 E1.17254
M73 P1 R81
G1 X117.734 Y91.786 E0.01232
G1 X91.037 Y65.089 E1.18763
G1 X90.502 Y65.089 E0.01683
G1 X117.538 Y92.125 E1.20272
G1 X117.342 Y92.464 E0.01232
G1 X89.967 Y65.089 E1.21780
G1 X89.432 Y65.089 E0.01683
G1 X117.146 Y92.803 E1.23289
G1 X116.950 Y93.142 E0.01232
G1 X88.897 Y65.089 E1.24798
G1 X88.362 Y65.089 E0.01683
G1 X116.754 Y93.482 E1.26307
G1 X116.559 Y93.821 E0.01232
G1 X87.827 Y65.089 E1.27816
G1 X87.292 Y65.089 E0.01683
G1 X116.363 Y94.160 E1.29325
G1 X116.167 Y94.499 E0.01232
G1 X86.757 Y65.089 E1.30834
G1 X86.222 Y65.089 E0.01683
G1 X115.971 Y94.838 E1.32343
G1 X115.775 Y95.178 E0.01232
G1 X85.687 Y65.089 E1.33852
G1 X85.152 Y65.089 E0.01683
G1 X115.580 Y95.517 E1.35360
G1 X115.384 Y95.856 E0.01232
G1 X84.617 Y65.089 E1.36869
G1 X84.082 Y65.089 E0.01683
G1 X115.188 Y96.195 E1.38378
M73 P2 R81
G1 X114.992 Y96.534 E0.01232
G1 X83.547 Y65.089 E1.39887
G1 X83.012 Y65.089 E0.01683
G1 X114.796 Y96.873 E1.41396
G1 X114.600 Y97.213 E0.01232
G1 X82.477 Y65.089 E1.42905
G1 X81.942 Y65.089 E0.01683
G1 X114.405 Y97.552 E1.44414
G1 X114.209 Y97.891 E0.01232
G1 X81.407 Y65.089 E1.45923
G1 X80.872 Y65.089 E0.01683
G1 X114.013 Y98.230 E1.47431
G1 X113.817 Y98.569 E0.01232
G1 X80.337 Y65.089 E1.48940
G1 X79.802 Y65.089 E0.01683
G1 X113.621 Y98.909 E1.50449
G1 X113.425 Y99.248 E0.01232
G1 X79.267 Y65.089 E1.51958
G1 X78.732 Y65.089 E0.01683
G1 X113.230 Y99.587 E1.53467
G1 X113.034 Y99.926 E0.01232
G1 X78.197 Y65.089 E1.54976
G1 X77.662 Y65.089 E0.01683
G1 X112.838 Y100.265 E1.56485
G1 X112.642 Y100.604 E0.01232
G1 X77.127 Y65.089 E1.57994
M73 P2 R80
G1 X76.592 Y65.089 E0.01683
G1 X112.446 Y100.944 E1.59502
G1 X112.250 Y101.283 E0.01232
G1 X76.057 Y65.089 E1.61011
G1 X75.618 Y65.089 E0.01381
G1 X75.583 Y65.150 E0.00221
G1 X112.055 Y101.622 E1.62250
G1 X111.859 Y101.961 E0.01232
G1 X75.387 Y65.489 E1.62250
G1 X75.191 Y65.828 E0.01232
G1 X111.663 Y102.300 E1.62250
G1 X111.467 Y102.640 E0.01232
G1 X74.995 Y66.167 E1.62250
G1 X74.799 Y66.507 E0.01232
G1 X111.271 Y102.979 E1.62250
M73 P3 R80
G1 X111.076 Y103.318 E0.01232
G1 X74.603 Y66.846 E1.62250
G1 X74.408 Y67.185 E0.01232
G1 X110.880 Y103.657 E1.62250
G1 X110.684 Y103.996 E0.01232
G1 X74.212 Y67.524 E1.62250
G1 X74.016 Y67.863 E0.01232
G1 X110.488 Y104.335 E1.62250
G1 X110.292 Y104.675 E0.01232
G1 X73.820 Y68.203 E1.62250
G1 X73.624 Y68.542 E0.01232
G1 X110.096 Y105.014 E1.62250
G1 X109.901 Y105.353 E0.01232
G1 X73.428 Y68.881 E1.62250
G1 X73.233 Y69.220 E0.01232
G1 X109.705 Y105.692 E1.62250
G1 X109.509 Y106.031 E0.01232
G1 X73.037 Y69.559 E1.62250
G1 X72.841 Y69.898 E0.01232
G1 X109.313 Y106.371 E1.62250
G1 X109.117 Y106.710 E0.01232
G1 X72.645 Y70.238 E1.62250
G1 X72.449 Y70.577 E0.01232
G1 X108.921 Y107.049 E1.62250
G1 X108.726 Y107.388 E0.01232
G1 X72.254 Y70.916 E1.62250
G1 X72.058 Y71.255 E0.01232
G1 X108.530 Y107.727 E1.62250
G1 X108.334 Y108.066 E0.01232
G1 X71.862 Y71.594 E1.62250
G1 X71.666 Y71.934 E0.01232
G1 X108.138 Y108.406 E1.62250
M73 P3 R79
G1 X107.942 Y108.745 E0.01232
G1 X71.470 Y72.273 E1.62250
G1 X71.274 Y72.612 E0.01232
G1 X107.746 Y109.084 E1.62250
G1 X107.551 Y109.423 E0.01232
G1 X71.079 Y72.951 E1.62250
M73 P4 R79
G1 X70.883 Y73.290 E0.01232
G1 X107.355 Y109.762 E1.62250
G1 X107.159 Y110.102 E0.01232
G1 X70.687 Y73.629 E1.62250
G1 X70.491 Y73.969 E0.01232
G1 X106.963 Y110.441 E1.62250
G1 X106.767 Y110.780 E0.01232
G1 X70.295 Y74.308 E1.62250
G1 X70.099 Y74.647 E0.01232
G1 X106.572 Y111.119 E1.62250
G1 X106.376 Y111.458 E0.01232
G1 X69.904 Y74.986 E1.62250
G1 X69.708 Y75.325 E0.01232
G1 X106.180 Y111.797 E1.62250
G1 X105.984 Y112.137 E0.01232
G1 X69.512 Y75.665 E1.62250
G1 X69.316 Y76.004 E0.01232
G1 X105.788 Y112.476 E1.62250
G1 X105.592 Y112.815 E0.01232
G1 X69.120 Y76.343 E1.62250
G1 X68.924 Y76.682 E0.01232
G1 X105.397 Y113.154 E1.62250
G1 X105.201 Y113.493 E0.01232
G1 X68.729 Y77.021 E1.62250
G1 X68.533 Y77.360 E0.01232
G1 X105.005 Y113.833 E1.62250
G1 X104.809 Y114.172 E0.01232
G1 X68.337 Y77.700 E1.62250
G1 X68.141 Y78.039 E0.01232
G1 X104.613 Y114.511 E1.62250
G1 X104.417 Y114.850 E0.01232
G1 X67.945 Y78.378 E1.62250
G1 X67.750 Y78.717 E0.01232
G1 X103.943 Y114.911 E1.61011
G1 X103.408 Y114.911 E0.01683
G1 X67.554 Y79.056 E1.59502
G1 X67.358 Y79.396 E0.01232
G1 X102.873 Y114.911 E1.57994
M73 P5 R79
G1 X102.338 Y114.911 E0.01683
G1 X67.162 Y79.735 E1.56485
M73 P5 R78
G1 X66.966 Y80.074 E0.01232
G1 X101.803 Y114.911 E1.54976
G1 X101.268 Y114.911 E0.01683
G1 X66.770 Y80.413 E1.53467
G1 X66.575 Y80.752 E0.01232
G1 X100.733 Y114.911 E1.51958
G1 X100.198 Y114.911 E0.01683
G1 X66.379 Y81.091 E1.50449
G1 X66.183 Y81.431 E0.01232
G1 X99.663 Y114.911 E1.48940
G1 X99.128 Y114.911 E0.01683
G1 X65.987 Y81.770 E1.47431
G1 X65.791 Y82.109 E0.01232
G1 X98.593 Y114.911 E1.45923
G1 X98.058 Y114.911 E0.01683
G1 X65.595 Y82.448 E1.44414
G1 X65.400 Y82.787 E0.01232
G1 X97.523 Y114.911 E1.42905
G1 X96.988 Y114.911 E0.01683
G1 X65.204 Y83.127 E1.41396
G1 X65.008 Y83.466 E0.01232
G1 X96.453 Y114.911 E1.39887
G1 X95.918 Y114.911 E0.01683
G1 X64.812 Y83.805 E1.38378
G1 X64.616 Y84.144 E0.01232
G1 X95.383 Y114.911 E1.36869
G1 X94.848 Y114.911 E0.01683
G1 X64.420 Y84.483 E1.35360
G1 X64.225 Y84.822 E0.01232
G1 X94.313 Y114.911 E1.33852
G1 X93.778 Y114.911 E0.01683
G1 X64.029 Y85.162 E1.32343
G1 X63.833 Y85.501 E0.01232
G1 X93.243 Y114.911 E1.30834
G1 X92.708 Y114.911 E0.01683
G1 X63.637 Y85.840 E1.29325
G1 X63.441 Y86.179 E0.01232
G1 X92.173 Y114.911 E1.27816
G1 X91.638 Y114.911 E0.01683
G1 X63.246 Y86.518 E1.26307
M73 P6 R78
G1 X63.050 Y86.858 E0.01232
G1 X91.103 Y114.911 E1.24798
G1 X90.568 Y114.911 E0.01683
G1 X62.854 Y87.197 E1.23289
G1 X62.658 Y87.536 E0.01232
G1 X90.033 Y114.911 E1.21781
G1 X89.498 Y114.911 E0.01683
G1 X62.462 Y87.875 E1.20272
G1 X62.266 Y88.214 E0.01232
G1 X88.963 Y114.911 E1.18763
G1 X88.428 Y114.911 E0.01683
G1 X62.071 Y88.553 E1.17254
G1 X61.875 Y88.893 E0.01232
G1 X87.893 Y114.911 E1.15745
M73 P6 R77
G1 X87.358 Y114.911 E0.01683
G1 X61.679 Y89.232 E1.14236
G1 X61.483 Y89.571 E0.01232
G1 X86.823 Y114.911 E1.12727
G1 X86.288 Y114.911 E0.01683
G1 X61.287 Y89.910 E1.11218
G1 X61.235 Y90.000 E0.00326
G1 X61.773 Y90.930 E0.03380
G1 X85.753 Y114.911 E1.06679
G1 X85.218 Y114.911 E0.01683
G1 X62.503 Y92.196 E1.01048
G1 X63.234 Y93.462 E0.04598
G1 X84.683 Y114.911 E0.95417
G1 X84.148 Y114.911 E0.01683
G1 X63.965 Y94.728 E0.89786
G1 X64.696 Y95.994 E0.04598
G1 X83.613 Y114.911 E0.84154
G1 X83.078 Y114.911 E0.01683
G1 X65.427 Y97.260 E0.78523
G1 X66.158 Y98.526 E0.04598
G1 X82.543 Y114.911 E0.72892
G1 X82.008 Y114.911 E0.01683
G1 X66.888 Y99.791 E0.67261
G1 X67.619 Y101.057 E0.04598
G1 X81.473 Y114.911 E0.61630
G1 X80.938 Y114.911 E0.01683
G1 X68.350 Y102.323 E0.55998
G1 X69.081 Y103.589 E0.04598
G1 X80.403 Y114.911 E0.50367
G1 X79.868 Y114.911 E0.01683
G1 X69.812 Y104.855 E0.44736
G1 X70.543 Y106.121 E0.04598
G1 X79.333 Y114.911 E0.39105
G1 X78.798 Y114.911 E0.01683
G1 X71.273 Y107.386 E0.33473
G1 X72.004 Y108.652 E0.04598
G1 X78.263 Y114.911 E0.27842
G1 X77.728 Y114.911 E0.01683
G1 X72.735 Y109.918 E0.22211
G1 X73.466 Y111.184 E0.04598
G1 X77.193 Y114.911 E0.16580
G1 X76.658 Y114.911 E0.01683
G1 X74.197 Y112.450 E0.10949
G1 X74.928 Y113.716 E0.04598
G1 X76.293 Y115.081 E0.06072
M204 S1250
; stop printing object hexagon-bowl-120mmxx60mmx25mm.stl id:0 copy 0
M106 S84.15
;LAYER_CHANGE
;Z:0.45
;HEIGHT:0.25
;BEFORE_LAYER_CHANGE
G92 E0.0
;0.45


G1 E-2.24000 F4200.000
;WIPE_START
G1 F7200.000
G1 X75.129 Y113.917 E-0.91200
;WIPE_END
G1 E-0.04800 F4200.000
G1 Z0.400 F9000.000
G1 Z0.450
;AFTER_LAYER_CHANGE
;0.45
G1 Z0.650
G1 X73.344 Y117.686
G1 Z0.450
G1 E3.20000 F2400.000
;TYPE:Skirt
;WIDTH:0.42
G1 X72.954 Y117.191 E0.02401
G1 X57.913 Y91.139 E1.14545
G1 X57.696 Y90.583 E0.02271
G1 X57.623 Y89.995 E0.02257
G1 X57.699 Y89.404 E0.02271
G1 X57.920 Y88.850 E0.02271
G1 X72.953 Y62.811 E1.14487
G1 X73.326 Y62.331 E0.02314
G1 X73.812 Y61.960 E0.02329
G1 X74.373 Y61.726 E0.02314
G1 X74.975 Y61.642 E0.02314
G1 X105.004 Y61.642 E1.14342
G1 X105.618 Y61.724 E0.02357
G1 X106.189 Y61.961 E0.02357
G1 X106.680 Y62.338 E0.02357
G1 X107.058 Y62.829 E0.02357
G1 X122.101 Y88.888 E1.14574
G1 X122.310 Y89.439 E0.02242
G1 X122.377 Y90.024 E0.02242
G1 X122.298 Y90.607 E0.02242
G1 X122.080 Y91.150 E0.02228
G1 X107.045 Y117.192 E1.14501
G1 X106.657 Y117.685 E0.02386
G1 X106.158 Y118.057 E0.02372
G1 X105.597 Y118.282 E0.02300
G1 X105.000 Y118.358 E0.02293
G1 X74.977 Y118.358 E1.14320
G1 X74.397 Y118.280 E0.02228
G1 X73.850 Y118.061 E0.02242
G1 X73.392 Y117.722 E0.02172
; printing object hexagon-bowl-120mmxx60mmx25mm.stl id:0 copy 0
G1 E-2.24000 F4200.000
;WIPE_START
G1 F7200.000
G1 X72.954 Y117.191 E-0.38155
G1 X72.475 Y116.362 E-0.53045
;WIPE_END
G1 E-0.04800 F4200.000
G1 Z0.650 F9000.000
G1 X75.359 Y115.359
G1 Z0.450
G1 E3.20000 F2400.000
M204 S800
;TYPE:Perimeter
;WIDTH:0.45
G1 F3300.000
G1 X60.717 Y90.000 E1.20632
G1 X75.359 Y64.641 E1.20632
G1 X104.641 Y64.641 E1.20632
G1 X119.283 Y90.000 E1.20632
G1 X104.641 Y115.359 E1.20632
G1 X75.419 Y115.359 E1.20384
M204 S1250
G1 X75.130 Y115.756 F9000.000
M204 S800
;TYPE:External perimeter
G1 F2400.000
G1 X60.260 Y90.000 E1.22517
G1 X75.130 Y64.244 E1.22517
G1 X104.870 Y64.244 E1.22517
G1 X119.740 Y90.000 E1.22517
G1 X104.870 Y115.756 E1.22517
M73 P7 R77
G1 X75.190 Y115.756 E1.22270
M204 S1250
G1 X75.130 Y115.356 F9000.000
G1 E-2.24000 F4200.000
;WIPE_START
G1 F7200.000
G1 X74.365 Y114.332 E-0.91200
;WIPE_END
G1 E-0.04800 F4200.000
G1 Z0.650 F9000.000
G1 X74.320 Y66.677
G1 Z0.450
G1 E3.20000 F2400.000
M204 S1000
;TYPE:Solid infill
;WIDTH:0.45047
G1 F6000.000
G1 X76.060 Y64.938 E0.10145
G1 X76.621 Y64.938 E0.02315
G1 X74.041 Y67.518 E0.15048
G1 X73.274 Y68.845 E0.06324
G1 X77.182 Y64.938 E0.22792
G1 X77.743 Y64.938 E0.02315
G1 X72.508 Y70.173 E0.30537
G1 X71.741 Y71.501 E0.06324
G1 X78.304 Y64.938 E0.38282
G1 X78.865 Y64.938 E0.02315
G1 X70.975 Y72.829 E0.46027
G1 X70.208 Y74.157 E0.06324
G1 X79.427 Y64.938 E0.53772
G1 X79.988 Y64.938 E0.02315
G1 X69.441 Y75.484 E0.61516
G1 X68.675 Y76.812 E0.06324
G1 X80.549 Y64.938 E0.69261
G1 X81.110 Y64.938 E0.02315
G1 X67.908 Y78.140 E0.77006
G1 X67.142 Y79.468 E0.06324
G1 X81.671 Y64.938 E0.84751
G1 X82.233 Y64.938 E0.02315
G1 X66.375 Y80.795 E0.92496
G1 X65.608 Y82.123 E0.06324
G1 X82.794 Y64.938 E1.00240
G1 X83.355 Y64.938 E0.02315
G1 X64.842 Y83.451 E1.07985
G1 X64.075 Y84.779 E0.06324
G1 X83.916 Y64.938 E1.15730
G1 X84.477 Y64.938 E0.02315
G1 X63.309 Y86.107 E1.23475
G1 X62.542 Y87.434 E0.06324
G1 X85.039 Y64.938 E1.31220
G1 X85.600 Y64.938 E0.02315
G1 X61.775 Y88.762 E1.38964
G1 X61.061 Y90.000 E0.05895
G1 X61.075 Y90.024 E0.00115
G1 X86.161 Y64.938 E1.46325
G1 X86.722 Y64.938 E0.02315
G1 X61.280 Y90.380 E1.48400
G1 X61.485 Y90.736 E0.01694
G1 X87.283 Y64.938 E1.50475
G1 X87.844 Y64.938 E0.02315
G1 X61.691 Y91.091 E1.52551
G1 X61.896 Y91.447 E0.01694
G1 X88.406 Y64.938 E1.54626
G1 X88.967 Y64.938 E0.02315
G1 X62.102 Y91.803 E1.56701
G1 X62.307 Y92.159 E0.01694
G1 X89.528 Y64.938 E1.58776
G1 X90.089 Y64.938 E0.02315
G1 X62.513 Y92.515 E1.60852
G1 X62.718 Y92.870 E0.01694
G1 X90.650 Y64.938 E1.62927
G1 X91.212 Y64.938 E0.02315
G1 X62.923 Y93.226 E1.65002
G1 X63.129 Y93.582 E0.01694
