; generated by PrusaSlicer 2.3.1+arm64 on 2021-05-22 at 19:27:07 UTC


;
;

;
;
; 

; external perimeters extrusion width = 0.45mm
; perimeters extrusion width = 0.45mm
; infill extrusion width = 0.45mm
; solid infill extrusion width = 0.45mm
; top infill extrusion width = 0.40mm
; first layer extrusion width = 0.42mm

M73 P0 R129
M201 X1250 Y1250 Z400 E5000 ; sets maximum accelerations, mm/sec^2
M203 X180 Y180 Z12 E80 ; sets maximum feedrates, mm/sec
M204 P1250 R1250 T1250 ; sets acceleration (P, T) and retract acceleration (R), mm/sec^2
M205 X8.00 Y8.00 Z2.00 E10.00 ; sets the jerk limits, mm/sec
M205 S0 T0 ; sets the minimum extruding and travel feed rate, mm/sec
M107
;TYPE:Custom
G90 ; use absolute coordinates
M83 ; extruder relative mode
M104 S170 ; set extruder temp for bed leveling
M140 S60 ; set bed temp
M109 R170 ; wait for bed leveling temp
M190 S60 ; wait for bed temp
G28 ; home all without mesh bed level
G29 ; mesh bed leveling 
M104 S215 ; set extruder temp
G92 E0.0
G1 Y-2.0 X179 F2400
G1 Z3 F720
M109 S215 ; wait for extruder temp

; intro line
G1 X170 F1000
G1 Z0.2 F720
G1 X110.0 E8.0 F900
M73 P0 R128
G1 X40.0 E10.0 F700
G92 E0.0

M221 S95 ; set flow
G21 ; set units to millimeters
G90 ; use absolute coordinates
M83 ; use relative distances for extrusion
M900 K0.2 ; Filament gcode LA 1.5
; ; Filament gcode LA 1.0
;LAYER_CHANGE
;Z:0.2
;HEIGHT:0.2
;BEFORE_LAYER_CHANGE
G92 E0.0
;0.2


G1 E-3.20000 F4200.000
G1 Z0.200 F9000.000
;AFTER_LAYER_CHANGE
;0.2
G1 Z0.400
G1 X63.326 Y45.011
G1 Z0.200
G1 E3.20000 F2400.000
M204 S800
;TYPE:Skirt
;WIDTH:0.42
G1 F1200.000
G1 X63.812 Y44.640 E0.01917
G1 X64.381 Y44.404 E0.01929
G1 X64.987 Y44.322 E0.01917
G1 X115.004 Y44.322 E1.56825
G1 X115.618 Y44.403 E0.01941
G1 X116.189 Y44.641 E0.01941
G1 X116.680 Y45.018 E0.01941
G1 X117.058 Y45.508 E0.01941
G1 X142.085 Y88.858 E1.56945
G1 X142.304 Y89.417 E0.01882
G1 X142.377 Y90.012 E0.01882
G1 X142.298 Y90.607 E0.01882
G1 X142.073 Y91.164 E0.01882
G1 X117.051 Y134.503 E1.56909
G1 X116.668 Y134.995 E0.01953
G1 X116.171 Y135.370 E0.01953
G1 X115.605 Y135.600 E0.01917
G1 X115.000 Y135.678 E0.01912
G1 X64.985 Y135.678 E1.56819
G1 X64.390 Y135.599 E0.01882
G1 X63.837 Y135.375 E0.01870
G1 X63.336 Y134.999 E0.01965
G1 X62.948 Y134.501 E0.01977
G1 X37.923 Y91.155 E1.56933
G1 X37.698 Y90.595 E0.01894
G1 X37.623 Y89.995 E0.01894
G1 X37.701 Y89.396 E0.01894
G1 X37.927 Y88.836 E0.01894
G1 X62.949 Y45.497 E1.56909
G1 X63.289 Y45.058 E0.01741
M204 S1250
; printing object hexagon-bowl-150mmx100mmx20mm.stl id:0 copy 0
G1 E-2.24000 F4200.000
;WIPE_START
G1 F7200.000
G1 X63.812 Y44.640 E-0.37114
G1 X64.381 Y44.404 E-0.34099
G1 X64.738 Y44.355 E-0.19986
;WIPE_END
G1 E-0.04800 F4200.000
G1 Z0.400 F9000.000
G1 X65.454 Y47.486
G1 Z0.200
G1 E3.20000 F2400.000
M204 S800
;TYPE:Perimeter
G1 F1200.000
G1 X114.546 Y47.486 E1.53922
G1 X139.091 Y90.000 E1.53922
G1 X114.546 Y132.514 E1.53922
G1 X65.454 Y132.514 E1.53922
G1 X40.909 Y90.000 E1.53922
G1 X65.424 Y47.538 E1.53734
M204 S1250
G1 X65.237 Y47.109 F9000.000
M204 S800
;TYPE:External perimeter
G1 F1200.000
G1 X114.763 Y47.109 E1.55287
G1 X139.527 Y90.000 E1.55287
G1 X114.763 Y132.891 E1.55287
G1 X65.237 Y132.891 E1.55287
G1 X40.473 Y90.000 E1.55287
G1 X65.207 Y47.161 E1.55099
M204 S1250
G1 X65.583 Y47.309 F9000.000
G1 E-2.24000 F4200.000
;WIPE_START
G1 F7200.000
G1 X66.852 Y47.159 E-0.91200
;WIPE_END
G1 E-0.04800 F4200.000
G1 Z0.400 F9000.000
G1 X113.707 Y47.599
G1 Z0.200
G1 E3.20000 F2400.000
M204 S800
;TYPE:Solid infill
;WIDTH:0.421426
G1 F1200.000
G1 X115.073 Y48.965 E0.06080
G1 X115.804 Y50.231 E0.04603
G1 X113.341 Y47.769 E0.10962
G1 X112.806 Y47.769 E0.01685
G1 X116.535 Y51.498 E0.16599
G1 X117.267 Y52.764 E0.04603
G1 X112.271 Y47.769 E0.22236
G1 X111.736 Y47.769 E0.01685
G1 X117.998 Y54.031 E0.27873
G1 X118.729 Y55.297 E0.04603
G1 X111.200 Y47.769 E0.33510
G1 X110.665 Y47.769 E0.01685
G1 X119.460 Y56.564 E0.39147
G1 X120.192 Y57.830 E0.04603
G1 X110.130 Y47.769 E0.44785
G1 X109.594 Y47.769 E0.01685
G1 X120.923 Y59.097 E0.50422
M73 P0 R127
G1 X121.654 Y60.363 E0.04603
G1 X109.059 Y47.769 E0.56059
G1 X108.524 Y47.769 E0.01685
G1 X122.385 Y61.630 E0.61696
G1 X123.116 Y62.896 E0.04603
G1 X107.989 Y47.769 E0.67333
G1 X107.453 Y47.769 E0.01685
G1 X123.848 Y64.163 E0.72970
G1 X124.579 Y65.429 E0.04603
G1 X106.918 Y47.769 E0.78607
G1 X106.383 Y47.769 E0.01685
G1 X125.310 Y66.696 E0.84245
G1 X126.041 Y67.962 E0.04603
G1 X105.847 Y47.769 E0.89882
G1 X105.312 Y47.769 E0.01685
G1 X126.772 Y69.229 E0.95519
M73 P1 R127
G1 X127.504 Y70.495 E0.04603
G1 X104.777 Y47.769 E1.01156
G1 X104.242 Y47.769 E0.01685
G1 X128.235 Y71.762 E1.06793
G1 X128.966 Y73.029 E0.04603
G1 X103.706 Y47.769 E1.12430
G1 X103.171 Y47.769 E0.01685
G1 X129.697 Y74.295 E1.18067
G1 X130.429 Y75.562 E0.04603
G1 X102.636 Y47.769 E1.23705
G1 X102.100 Y47.769 E0.01685
G1 X131.160 Y76.828 E1.29342
G1 X131.891 Y78.095 E0.04603
G1 X101.565 Y47.769 E1.34979
G1 X101.030 Y47.769 E0.01685
G1 X132.622 Y79.361 E1.40616
G1 X133.353 Y80.628 E0.04603
G1 X100.494 Y47.769 E1.46253
G1 X99.959 Y47.769 E0.01685
G1 X134.085 Y81.894 E1.51890
G1 X134.816 Y83.161 E0.04603
G1 X99.424 Y47.769 E1.57527
G1 X98.889 Y47.769 E0.01685
G1 X135.547 Y84.427 E1.63165
G1 X136.278 Y85.694 E0.04603
G1 X98.353 Y47.769 E1.68802
G1 X97.818 Y47.769 E0.01685
G1 X137.010 Y86.960 E1.74439
G1 X137.741 Y88.227 E0.04603
G1 X97.283 Y47.769 E1.80076
G1 X96.747 Y47.769 E0.01685
G1 X138.472 Y89.493 E1.85713
G1 X138.765 Y90.000 E0.01842
G1 X138.647 Y90.204 E0.00740
G1 X96.212 Y47.769 E1.88875
G1 X95.677 Y47.769 E0.01685
G1 X138.451 Y90.543 E1.90386
G1 X138.255 Y90.882 E0.01233
G1 X95.142 Y47.769 E1.91896
G1 X94.606 Y47.769 E0.01685
G1 X138.059 Y91.222 E1.93407
M73 P1 R126
G1 X137.863 Y91.561 E0.01233
G1 X94.071 Y47.769 E1.94917
G1 X93.536 Y47.769 E0.01685
G1 X137.667 Y91.900 E1.96428
G1 X137.472 Y92.240 E0.01233
G1 X93.000 Y47.769 E1.97938
G1 X92.465 Y47.769 E0.01685
G1 X137.276 Y92.579 E1.99449
G1 X137.080 Y92.918 E0.01233
G1 X91.930 Y47.769 E2.00959
G1 X91.395 Y47.769 E0.01685
G1 X136.884 Y93.258 E2.02470
G1 X136.688 Y93.597 E0.01233
G1 X90.859 Y47.769 E2.03980
G1 X90.324 Y47.769 E0.01685
G1 X136.492 Y93.936 E2.05490
G1 X136.296 Y94.276 E0.01233
G1 X89.789 Y47.769 E2.07001
M73 P2 R126
G1 X89.253 Y47.769 E0.01685
G1 X136.100 Y94.615 E2.08511
G1 X135.904 Y94.955 E0.01233
G1 X88.718 Y47.769 E2.10022
G1 X88.183 Y47.769 E0.01685
G1 X135.708 Y95.294 E2.11532
G1 X135.512 Y95.633 E0.01233
G1 X87.648 Y47.769 E2.13043
G1 X87.112 Y47.769 E0.01685
G1 X135.316 Y95.973 E2.14553
G1 X135.120 Y96.312 E0.01233
G1 X86.577 Y47.769 E2.16064
G1 X86.042 Y47.769 E0.01685
G1 X134.924 Y96.651 E2.17574
G1 X134.729 Y96.991 E0.01233
G1 X85.506 Y47.769 E2.19085
G1 X84.971 Y47.769 E0.01685
G1 X134.533 Y97.330 E2.20595
M73 P2 R125
G1 X134.337 Y97.669 E0.01233
G1 X84.436 Y47.769 E2.22106
G1 X83.901 Y47.769 E0.01685
G1 X134.141 Y98.009 E2.23616
G1 X133.945 Y98.348 E0.01233
G1 X83.365 Y47.769 E2.25127
G1 X82.830 Y47.769 E0.01685
G1 X133.749 Y98.688 E2.26637
G1 X133.553 Y99.027 E0.01233
G1 X82.295 Y47.769 E2.28147
G1 X81.759 Y47.769 E0.01685
G1 X133.357 Y99.366 E2.29658
G1 X133.161 Y99.706 E0.01233
G1 X81.224 Y47.769 E2.31168
G1 X80.689 Y47.769 E0.01685
G1 X132.965 Y100.045 E2.32679
G1 X132.769 Y100.384 E0.01233
G1 X80.154 Y47.769 E2.34189
G1 X79.618 Y47.769 E0.01685
G1 X132.573 Y100.724 E2.35700
G1 X132.377 Y101.063 E0.01233
G1 X79.083 Y47.769 E2.37210
G1 X78.548 Y47.769 E0.01685
G1 X132.181 Y101.402 E2.38721
M73 P3 R125
G1 X131.986 Y101.742 E0.01233
G1 X78.012 Y47.769 E2.40231
G1 X77.477 Y47.769 E0.01685
G1 X131.790 Y102.081 E2.41742
G1 X131.594 Y102.420 E0.01233
G1 X76.942 Y47.769 E2.43252
G1 X76.407 Y47.769 E0.01685
G1 X131.398 Y102.760 E2.44763
M73 P3 R124
G1 X131.202 Y103.099 E0.01233
G1 X75.871 Y47.769 E2.46273
G1 X75.336 Y47.769 E0.01685
G1 X131.006 Y103.439 E2.47784
G1 X130.810 Y103.778 E0.01233
G1 X74.801 Y47.769 E2.49294
G1 X74.265 Y47.769 E0.01685
G1 X130.614 Y104.117 E2.50805
G1 X130.418 Y104.457 E0.01233
G1 X73.730 Y47.769 E2.52315
G1 X73.195 Y47.769 E0.01685
G1 X130.222 Y104.796 E2.53825
G1 X130.026 Y105.135 E0.01233
G1 X72.659 Y47.769 E2.55336
G1 X72.124 Y47.769 E0.01685
G1 X129.830 Y105.475 E2.56846
G1 X129.634 Y105.814 E0.01233
G1 X71.589 Y47.769 E2.58357
G1 X71.054 Y47.769 E0.01685
G1 X129.438 Y106.153 E2.59867
G1 X129.243 Y106.493 E0.01233
G1 X70.518 Y47.769 E2.61378
G1 X69.983 Y47.769 E0.01685
G1 X129.047 Y106.832 E2.62888
G1 X128.851 Y107.171 E0.01233
G1 X69.448 Y47.769 E2.64399
G1 X68.912 Y47.769 E0.01685
G1 X128.655 Y107.511 E2.65909
G1 X128.459 Y107.850 E0.01233
G1 X68.377 Y47.769 E2.67420
M73 P4 R123
G1 X67.842 Y47.769 E0.01685
G1 X128.263 Y108.190 E2.68930
G1 X128.067 Y108.529 E0.01233
G1 X67.307 Y47.769 E2.70441
G1 X66.771 Y47.769 E0.01685
G1 X127.871 Y108.868 E2.71951
G1 X127.675 Y109.208 E0.01233
G1 X66.236 Y47.769 E2.73462
G1 X65.701 Y47.769 E0.01685
G1 X127.479 Y109.547 E2.74972
G1 X127.283 Y109.886 E0.01233
G1 X65.452 Y48.055 E2.75206
G1 X65.256 Y48.395 E0.01233
G1 X127.087 Y110.226 E2.75206
G1 X126.891 Y110.565 E0.01233
G1 X65.060 Y48.734 E2.75206
G1 X64.864 Y49.073 E0.01233
G1 X126.695 Y110.904 E2.75206
G1 X126.499 Y111.244 E0.01233
G1 X64.668 Y49.413 E2.75206
G1 X64.473 Y49.752 E0.01233
G1 X126.304 Y111.583 E2.75206
G1 X126.108 Y111.923 E0.01233
G1 X64.277 Y50.091 E2.75206
G1 X64.081 Y50.431 E0.01233
G1 X125.912 Y112.262 E2.75206
G1 X125.716 Y112.601 E0.01233
G1 X63.885 Y50.770 E2.75206
M73 P4 R122
G1 X63.689 Y51.110 E0.01233
G1 X125.520 Y112.941 E2.75206
G1 X125.324 Y113.280 E0.01233
G1 X63.493 Y51.449 E2.75206
G1 X63.297 Y51.788 E0.01233
G1 X125.128 Y113.619 E2.75206
G1 X124.932 Y113.959 E0.01233
G1 X63.101 Y52.128 E2.75206
M73 P5 R122
G1 X62.905 Y52.467 E0.01233
G1 X124.736 Y114.298 E2.75206
G1 X124.540 Y114.637 E0.01233
G1 X62.709 Y52.806 E2.75206
G1 X62.513 Y53.146 E0.01233
G1 X124.344 Y114.977 E2.75206
G1 X124.148 Y115.316 E0.01233
G1 X62.317 Y53.485 E2.75206
G1 X62.121 Y53.824 E0.01233
G1 X123.952 Y115.655 E2.75206
G1 X123.756 Y115.995 E0.01233
G1 X61.925 Y54.164 E2.75206
G1 X61.730 Y54.503 E0.01233
G1 X123.561 Y116.334 E2.75206
G1 X123.365 Y116.674 E0.01233
G1 X61.534 Y54.842 E2.75206
G1 X61.338 Y55.182 E0.01233
G1 X123.169 Y117.013 E2.75206
M73 P5 R121
G1 X122.973 Y117.352 E0.01233
G1 X61.142 Y55.521 E2.75206
G1 X60.946 Y55.861 E0.01233
G1 X122.777 Y117.692 E2.75206
G1 X122.581 Y118.031 E0.01233
G1 X60.750 Y56.200 E2.75206
G1 X60.554 Y56.539 E0.01233
G1 X122.385 Y118.370 E2.75206
G1 X122.189 Y118.710 E0.01233
G1 X60.358 Y56.879 E2.75206
G1 X60.162 Y57.218 E0.01233
G1 X121.993 Y119.049 E2.75206
G1 X121.797 Y119.388 E0.01233
G1 X59.966 Y57.557 E2.75206
G1 X59.770 Y57.897 E0.01233
G1 X121.601 Y119.728 E2.75206
G1 X121.405 Y120.067 E0.01233
G1 X59.574 Y58.236 E2.75206
M73 P6 R121
G1 X59.378 Y58.575 E0.01233
G1 X121.209 Y120.406 E2.75206
G1 X121.013 Y120.746 E0.01233
G1 X59.182 Y58.915 E2.75206
G1 X58.987 Y59.254 E0.01233
G1 X120.818 Y121.085 E2.75206
G1 X120.622 Y121.425 E0.01233
G1 X58.791 Y59.594 E2.75206
G1 X58.595 Y59.933 E0.01233
G1 X120.426 Y121.764 E2.75206
M73 P6 R120
G1 X120.230 Y122.103 E0.01233
G1 X58.399 Y60.272 E2.75206
G1 X58.203 Y60.612 E0.01233
G1 X120.034 Y122.443 E2.75206
G1 X119.838 Y122.782 E0.01233
G1 X58.007 Y60.951 E2.75206
G1 X57.811 Y61.290 E0.01233
G1 X119.642 Y123.121 E2.75206
G1 X119.446 Y123.461 E0.01233
G1 X57.615 Y61.630 E2.75206
G1 X57.419 Y61.969 E0.01233
G1 X119.250 Y123.800 E2.75206
G1 X119.054 Y124.139 E0.01233
G1 X57.223 Y62.308 E2.75206
G1 X57.027 Y62.648 E0.01233
G1 X118.858 Y124.479 E2.75206
G1 X118.662 Y124.818 E0.01233
G1 X56.831 Y62.987 E2.75206
G1 X56.635 Y63.326 E0.01233
G1 X118.466 Y125.158 E2.75206
G1 X118.270 Y125.497 E0.01233
G1 X56.439 Y63.666 E2.75206
G1 X56.243 Y64.005 E0.01233
G1 X118.075 Y125.836 E2.75206
M73 P7 R120
G1 X117.879 Y126.176 E0.01233
G1 X56.048 Y64.345 E2.75206
G1 X55.852 Y64.684 E0.01233
G1 X117.683 Y126.515 E2.75206
M73 P7 R119
G1 X117.487 Y126.854 E0.01233
G1 X55.656 Y65.023 E2.75206
G1 X55.460 Y65.363 E0.01233
G1 X117.291 Y127.194 E2.75206
G1 X117.095 Y127.533 E0.01233
G1 X55.264 Y65.702 E2.75206
G1 X55.068 Y66.041 E0.01233
G1 X116.899 Y127.872 E2.75206
G1 X116.703 Y128.212 E0.01233
G1 X54.872 Y66.381 E2.75206
G1 X54.676 Y66.720 E0.01233
G1 X116.507 Y128.551 E2.75206
G1 X116.311 Y128.890 E0.01233
G1 X54.480 Y67.059 E2.75206
G1 X54.284 Y67.399 E0.01233
G1 X116.115 Y129.230 E2.75206
G1 X115.919 Y129.569 E0.01233
G1 X54.088 Y67.738 E2.75206
G1 X53.892 Y68.078 E0.01233
G1 X115.723 Y129.909 E2.75206
G1 X115.527 Y130.248 E0.01233
G1 X53.696 Y68.417 E2.75206
G1 X53.500 Y68.756 E0.01233
G1 X115.332 Y130.587 E2.75206
G1 X115.136 Y130.927 E0.01233
G1 X53.305 Y69.096 E2.75206
M73 P7 R118
G1 X53.109 Y69.435 E0.01233
G1 X114.940 Y131.266 E2.75206
G1 X114.744 Y131.605 E0.01233
G1 X52.913 Y69.774 E2.75206
G1 X52.717 Y70.114 E0.01233
G1 X114.548 Y131.945 E2.75206
M73 P8 R118
G1 X114.382 Y132.231 E0.01042
G1 X114.299 Y132.231 E0.00262
G1 X52.521 Y70.453 E2.74972
G1 X52.325 Y70.792 E0.01233
G1 X113.764 Y132.231 E2.73461
G1 X113.229 Y132.231 E0.01685
G1 X52.129 Y71.132 E2.71951
G1 X51.933 Y71.471 E0.01233
G1 X112.693 Y132.231 E2.70440
G1 X112.158 Y132.231 E0.01685
G1 X51.737 Y71.810 E2.68930
G1 X51.541 Y72.150 E0.01233
G1 X111.623 Y132.231 E2.67420
G1 X111.087 Y132.231 E0.01685
G1 X51.345 Y72.489 E2.65909
G1 X51.149 Y72.829 E0.01233
G1 X110.552 Y132.231 E2.64399
G1 X110.017 Y132.231 E0.01685
G1 X50.953 Y73.168 E2.62888
G1 X50.757 Y73.507 E0.01233
G1 X109.482 Y132.231 E2.61378
G1 X108.946 Y132.231 E0.01685
G1 X50.562 Y73.847 E2.59867
M73 P8 R117
G1 X50.366 Y74.186 E0.01233
G1 X108.411 Y132.231 E2.58357
G1 X107.876 Y132.231 E0.01685
G1 X50.170 Y74.525 E2.56846
G1 X49.974 Y74.865 E0.01233
G1 X107.340 Y132.231 E2.55336
G1 X106.805 Y132.231 E0.01685
G1 X49.778 Y75.204 E2.53825
G1 X49.582 Y75.543 E0.01233
G1 X106.270 Y132.231 E2.52315
G1 X105.735 Y132.231 E0.01685
G1 X49.386 Y75.883 E2.50804
G1 X49.190 Y76.222 E0.01233
G1 X105.199 Y132.231 E2.49294
M73 P9 R117
G1 X104.664 Y132.231 E0.01685
G1 X48.994 Y76.561 E2.47783
G1 X48.798 Y76.901 E0.01233
G1 X104.129 Y132.231 E2.46273
G1 X103.593 Y132.231 E0.01685
G1 X48.602 Y77.240 E2.44763
G1 X48.406 Y77.580 E0.01233
G1 X103.058 Y132.231 E2.43252
G1 X102.523 Y132.231 E0.01685
G1 X48.210 Y77.919 E2.41742
G1 X48.014 Y78.258 E0.01233
G1 X101.988 Y132.231 E2.40231
G1 X101.452 Y132.231 E0.01685
G1 X47.819 Y78.598 E2.38721
G1 X47.623 Y78.937 E0.01233
G1 X100.917 Y132.231 E2.37210
M73 P9 R116
G1 X100.382 Y132.231 E0.01685
G1 X47.427 Y79.276 E2.35700
G1 X47.231 Y79.616 E0.01233
G1 X99.846 Y132.231 E2.34189
G1 X99.311 Y132.231 E0.01685
G1 X47.035 Y79.955 E2.32679
G1 X46.839 Y80.294 E0.01233
G1 X98.776 Y132.231 E2.31168
G1 X98.241 Y132.231 E0.01685
G1 X46.643 Y80.634 E2.29658
G1 X46.447 Y80.973 E0.01233
G1 X97.705 Y132.231 E2.28147
G1 X97.170 Y132.231 E0.01685
G1 X46.251 Y81.313 E2.26637
G1 X46.055 Y81.652 E0.01233
G1 X96.635 Y132.231 E2.25126
G1 X96.099 Y132.231 E0.01685
G1 X45.859 Y81.991 E2.23616
G1 X45.663 Y82.331 E0.01233
G1 X95.564 Y132.231 E2.22105
G1 X95.029 Y132.231 E0.01685
G1 X45.467 Y82.670 E2.20595
G1 X45.271 Y83.009 E0.01233
G1 X94.494 Y132.231 E2.19085
M73 P10 R116
G1 X93.958 Y132.231 E0.01685
G1 X45.076 Y83.349 E2.17574
G1 X44.880 Y83.688 E0.01233
G1 X93.423 Y132.231 E2.16064
G1 X92.888 Y132.231 E0.01685
G1 X44.684 Y84.027 E2.14553
G1 X44.488 Y84.367 E0.01233
G1 X92.352 Y132.231 E2.13043
G1 X91.817 Y132.231 E0.01685
G1 X44.292 Y84.706 E2.11532
M73 P10 R115
G1 X44.096 Y85.045 E0.01233
G1 X91.282 Y132.231 E2.10022
G1 X90.747 Y132.231 E0.01685
G1 X43.900 Y85.385 E2.08511
G1 X43.704 Y85.724 E0.01233
G1 X90.211 Y132.231 E2.07001
G1 X89.676 Y132.231 E0.01685
G1 X43.508 Y86.064 E2.05490
G1 X43.312 Y86.403 E0.01233
G1 X89.141 Y132.231 E2.03980
G1 X88.605 Y132.231 E0.01685
G1 X43.116 Y86.742 E2.02469
G1 X42.920 Y87.082 E0.01233
G1 X88.070 Y132.231 E2.00959
G1 X87.535 Y132.231 E0.01685
G1 X42.724 Y87.421 E1.99448
G1 X42.528 Y87.760 E0.01233
G1 X87.000 Y132.231 E1.97938
G1 X86.464 Y132.231 E0.01685
G1 X42.333 Y88.100 E1.96428
G1 X42.137 Y88.439 E0.01233
G1 X85.929 Y132.231 E1.94917
